src/assets/logos/wired.svg

<svg height="63" viewBox="0 0 302 63" width="302" xmlns="http://www.w3.org/2000/svg"><path d="m0 0h60.2375312v61.5511222h-60.2375312zm4.43618454 9.66052369c2.68723192 12.51289281 5.09673317 25.09334161 7.68638406 37.62875311.4728927 1.5012469.1801496 3.4828928 1.6363591 4.4887282 2.627182.4203491 5.3219202.3152618 7.9716209.1351122 1.441197.0450374 1.7864838-1.6513716 2.049202-2.7397756 1.8090025-8.9249127 3.7756359-17.8198005 5.5771322-26.7447132.1426184-.8256858.3978304-1.6288528.7881546-2.37197 2.2443641 9.5779551 4.098404 19.2384788 6.1851372 28.8464588.2852369 1.0208479.3452867 2.2818953 1.3511222 2.9049127 2.8673815.3452868 5.8098254.3753117 8.6697007-.0225187 1.0283541-.608005 1.0808978-1.8615461 1.343616-2.8974065 2.6497007-13.0683541 5.1192518-26.1892518 7.9190773-39.22758101-2.529601.01501247-5.0516958.00750624-7.5737906.00750624-2.0116708 11.37194517-3.6255112 22.81895257-5.8473566 34.15336657-2.499576-9.6154863-4.1734663-19.4636658-6.3502743-29.1692269-.4954114-1.6588778-.2702244-4.0758853-2.0867331-4.91658357-2.2218454-.13511221-4.4587033-.14261845-6.6805487 0-1.2610474.10508729-1.5462843 1.59882797-1.79399 2.58965087-2.0116708 9.6229925-4.1209227 19.2234663-6.0875561 28.8464589-.2026683.8932419-.5029177 1.7489526-.8406983 2.5971571-2.019177-11.3419202-3.9332668-22.7138654-5.6747132-34.10082297-2.74728177-.00750624-5.49456357.00750623-8.24184536-.00750624zm115.47591046-9.66052369h60.237531v61.5511222h-60.237531c0-20.5145387 0-41.0365835 0-61.5511222zm13.608803 9.66802993v42.21506237h8.346932c0-5.5020699 0-11.0116459 0-16.5137157 4.52626.0150124 9.052519-.0225187 13.578778.0075062 1.651372-.1576309 3.618005 1.0208479 3.580474 2.8373566.210175 4.5637905.600499 9.1125686.885736 13.6688529 2.649701 0 5.291895 0 7.941596.0075062-.750623-5.1642893.172643-10.5012219-1.283566-15.5604239-.750624-2.6497008-3.678055-3.2426933-5.95995-3.9032419 1.696409-.9007482 3.873217-.9833167 5.104239-2.6346883 1.786484-2.2668828 1.91409-5.2918953 1.921596-8.0541895-.030025-3.2276808.045038-6.7781297-2.004164-9.4878803-1.63636-2.25187036-4.698903-2.58214467-7.266035-2.58214467-8.279377-.00750624-16.56626 0-24.845636 0zm106.490947-9.66802993h60.988155v61.5511222h-60.988155c0-20.5145387 0-41.0365835 0-61.5511222zm13.608803 9.66802993v42.21506237c7.01833-.0150125 14.029152.0300249 21.047482-.0225187 4.323591-.0825686 9.360274-.8857357 11.964937-4.7589527 3.040025-4.8640399 2.582145-10.8164837 3.115088-16.3035411-.540449-5.4945636-.06005-11.4695262-3.115088-16.3485786-2.424513-3.6255112-7.063366-4.57880295-11.139252-4.72892763-7.288553-.12009975-14.584613-.02251871-21.873167-.05254364zm-178.1004236-.4128429c9.7055611-.0225187 19.403616-.0225187 29.1016706 0 .037531 2.51458857.037531 5.03668327.007506 7.55877807-3.430349.0225187-6.8606978.0075062-10.2910469.0075062.0150125 9.3002245.0150125 18.6079551 0 27.9081796 3.4303491 0 6.8606979-.0150125 10.2985539.0150124.015012 2.5145886.022518 5.0366833-.015013 7.5512719-9.6980546.0225187-19.3961095.0225187-29.0941643 0-.0375312-2.5220948-.0375312-5.0366833-.0075063-7.5587781 3.4303492-.0225187 6.8606983-.0075062 10.2910474-.0075062-.0150124-9.3002245-.0150124-18.6079551 0-27.9081796-3.4303491 0-6.8606982.0150125-10.2910474-.0075062-.0300249-2.5220948-.0300249-5.0366833 0-7.55877807zm115.3933416.00750624c11.889875-.03753118 23.779751-.03753118 35.677132 0 .015013 4.66887783 0 9.33775563.007506 14.00663343-2.574638 0-5.149276 0-7.723915 0-.007506-2.1542893-.007506-4.3010723.007507-6.4478554-4.653866.0075063-9.300225.0075063-13.95409 0-.015013 3.2276808-.007506 6.4553616-.007506 9.6830424h11.259351v7.1834663c-3.753117 0-7.506234 0-11.259351 0 .015012 3.6855611-.037532 7.3786285.037531 11.0641896 4.773965-.0525437 9.54793-.0150125 14.321895-.0225187-.007506-2.4545387-.007506-4.9090773 0-7.363616 2.619676-.0300249 5.239352-.0300249 7.859027-.0075062 0 4.9766334.037532 9.9532668-.022518 14.9299002-12.070025.0375312-24.132544.0375312-36.202569 0-.037531-2.5145885-.030025-5.029177-.007506-7.5437656 1.91409-.0225187 3.820673-.0225187 5.734763-.0075062.037531-9.3077307.037531-18.6154613 0-27.923192-1.91409.0150125-3.82818.0150125-5.742269-.0225187-.015013-2.5070823-.015013-5.0216708.015012-7.52875313zm-49.045736 7.34109723c5.359452.0825686 10.726409-.1651371 16.070848.1125935 2.064215 1.4637158 1.651372 4.4061596 1.73394 6.6204988-.105087 2.0116708-.142618 5.2318454-2.822344 5.3894763-4.984139.255212-9.990798.0375312-14.982444.1050873 0-4.0758853 0-8.1517706 0-12.2276559zm120.099751 0c4.526259.0225187 9.052519-.0300249 13.578778.0150125 2.019177-.0225187 4.323591.960798 4.961621 3.0325187 1.418678 4.0533666.81818 8.4520199.975811 12.6705237-.1201 3.3702992.232693 6.9282544-1.200998 10.088379-.960798 2.0416958-3.445362 2.5821447-5.494564 2.5446135-4.278553 0-8.549601-.0150125-12.820648-.0075062 0-9.4503492 0-18.893192 0-28.3435412z" transform="translate(.523 .737)"/></svg>

<svg xmlns="http://www.w3.org/2000/svg" width="302" height="63" viewBox="0 0 302 63">
  <path d="M-3.19744231e-13,2.84217094e-14 L60.2375312,2.84217094e-14 C60.2375312,20.5145387 60.2375312,41.0365835 60.2375312,61.5511222 L-3.19744231e-13,61.5511222 L-3.19744231e-13,2.84217094e-14 Z M4.43618454,9.66052369 C7.12341646,22.1734165 9.53291771,34.7538653 12.1225686,47.2892768 C12.5954613,48.7905237 12.3027182,50.7721696 13.7589277,51.778005 C16.3861097,52.1983541 19.0808479,52.0932668 21.7305486,51.9131172 C23.1717456,51.9581546 23.5170324,50.2617456 23.7797506,49.1733416 C25.5887531,40.2484289 27.5553865,31.3535411 29.3568828,22.4286284 C29.4995012,21.6029426 29.7547132,20.7997756 30.1450374,20.0566584 C32.3894015,29.6346135 34.2434414,39.2951372 36.3301746,48.9031172 C36.6154115,49.9239651 36.6754613,51.1850125 37.6812968,51.8080299 C40.5486783,52.1533167 43.4911222,52.1833416 46.3509975,51.7855112 C47.3793516,51.1775062 47.4318953,49.9239651 47.6946135,48.8881047 C50.3443142,35.8197506 52.8138653,22.6988529 55.6136908,9.66052369 C53.0840898,9.67553616 50.561995,9.66802993 48.0399002,9.66802993 C46.0282294,21.0399751 44.414389,32.4869825 42.1925436,43.8213965 C39.6929676,34.2059102 38.0190773,24.3577307 35.8422693,14.6521696 C35.3468579,12.9932918 35.5720449,10.5762843 33.7555362,9.73558603 C31.5336908,9.60047382 29.2968329,9.59296758 27.0749875,9.73558603 C25.8139401,9.84067332 25.5287032,11.334414 25.2809975,12.3252369 C23.2693267,21.9482294 21.1600748,31.5487032 19.1934414,41.1716958 C18.9907731,42.0649377 18.6905237,42.9206484 18.3527431,43.7688529 C16.3335661,32.4269327 14.4194763,21.0549875 12.6780299,9.66802993 C9.93074813,9.66052369 7.18346633,9.67553616 4.43618454,9.66052369 Z M119.912095,1.42108547e-14 L180.149626,1.42108547e-14 C180.149626,20.5145387 180.149626,41.0365835 180.149626,61.5511222 L119.912095,61.5511222 C119.912095,41.0365835 119.912095,20.5145387 119.912095,1.42108547e-14 Z M133.520898,9.66802993 C133.520898,23.7422195 133.520898,37.8089027 133.520898,51.8830923 C136.298204,51.8830923 139.083017,51.8830923 141.86783,51.8830923 C141.86783,46.3810224 141.86783,40.8714464 141.86783,35.3693766 C146.39409,35.384389 150.920349,35.3468579 155.446608,35.3768828 C157.09798,35.2192519 159.064613,36.3977307 159.027082,38.2142394 C159.237257,42.7780299 159.627581,47.326808 159.912818,51.8830923 C162.562519,51.8830923 165.204713,51.8830923 167.854414,51.8905985 C167.103791,46.7263092 168.027057,41.3893766 166.570848,36.3301746 C165.820224,33.6804738 162.892793,33.0874813 160.610898,32.4269327 C162.307307,31.5261845 164.484115,31.443616 165.715137,29.7922444 C167.501621,27.5253616 167.629227,24.5003491 167.636733,21.7380549 C167.606708,18.5103741 167.681771,14.9599252 165.632569,12.2501746 C163.996209,9.99830424 160.933666,9.66802993 158.366534,9.66802993 C150.087157,9.66052369 141.800274,9.66802993 133.520898,9.66802993 Z M240.011845,1.42108547e-14 L301,1.42108547e-14 L301,61.5511222 L240.011845,61.5511222 C240.011845,41.0365835 240.011845,20.5145387 240.011845,1.42108547e-14 Z M253.620648,9.66802993 C253.620648,23.7422195 253.620648,37.8089027 253.620648,51.8830923 C260.638978,51.8680798 267.6498,51.9131172 274.66813,51.8605736 C278.991721,51.778005 284.028404,50.9748379 286.633067,47.1016209 C289.673092,42.237581 289.215212,36.2851372 289.748155,30.7980798 C289.207706,25.3035162 289.688105,19.3285536 286.633067,14.4495012 C284.208554,10.82399 279.569701,9.87069825 275.493815,9.72057357 C268.205262,9.60047382 260.909202,9.69805486 253.620648,9.66802993 Z M75.5202244,9.25518703 C85.2257855,9.23266833 94.9238404,9.23266833 104.621895,9.25518703 C104.659426,11.7697756 104.659426,14.2918703 104.629401,16.8139651 C101.199052,16.8364838 97.7687032,16.8214713 94.3383541,16.8214713 C94.3533666,26.1216958 94.3533666,35.4294264 94.3383541,44.7296509 C97.7687032,44.7296509 101.199052,44.7146384 104.636908,44.7446633 C104.65192,47.2592519 104.659426,49.7813466 104.621895,52.2959352 C94.9238404,52.3184539 85.2257855,52.3184539 75.5277307,52.2959352 C75.4901995,49.7738404 75.4901995,47.2592519 75.5202244,44.7371571 C78.9505736,44.7146384 82.3809227,44.7296509 85.8112718,44.7296509 C85.7962594,35.4294264 85.7962594,26.1216958 85.8112718,16.8214713 C82.3809227,16.8214713 78.9505736,16.8364838 75.5202244,16.8139651 C75.4901995,14.2918703 75.4901995,11.7772818 75.5202244,9.25518703 Z M190.913566,9.26269327 C202.803441,9.22516209 214.693317,9.22516209 226.590698,9.26269327 C226.605711,13.9315711 226.590698,18.6004489 226.598204,23.2693267 C224.023566,23.2693267 221.448928,23.2693267 218.874289,23.2693267 C218.866783,21.1150374 218.866783,18.9682544 218.881796,16.8214713 C214.22793,16.8289776 209.581571,16.8289776 204.927706,16.8214713 C204.912693,20.0491521 204.9202,23.2768329 204.9202,26.5045137 C208.673317,26.5045137 212.426434,26.5045137 216.179551,26.5045137 C216.179551,28.8990025 216.179551,31.2934913 216.179551,33.68798 C212.426434,33.68798 208.673317,33.68798 204.9202,33.68798 C204.935212,37.3735411 204.882668,41.0666085 204.957731,44.7521696 C209.731696,44.6996259 214.505661,44.7371571 219.279626,44.7296509 C219.27212,42.2751122 219.27212,39.8205736 219.279626,37.3660349 C221.899302,37.33601 224.518978,37.33601 227.138653,37.3585287 C227.138653,42.3351621 227.176185,47.3117955 227.116135,52.2884289 C215.04611,52.3259601 202.983591,52.3259601 190.913566,52.2884289 C190.876035,49.7738404 190.883541,47.2592519 190.90606,44.7446633 C192.82015,44.7221446 194.726733,44.7221446 196.640823,44.7371571 C196.678354,35.4294264 196.678354,26.1216958 196.640823,16.8139651 C194.726733,16.8289776 192.812643,16.8289776 190.898554,16.7914464 C190.883541,14.2843641 190.883541,11.7697756 190.913566,9.26269327 Z M141.86783,16.6037905 C147.227282,16.6863591 152.594239,16.4386534 157.938678,16.716384 C160.002893,18.1800998 159.59005,21.1225436 159.672618,23.3368828 C159.567531,25.3485536 159.53,28.5687282 156.850274,28.7263591 C151.866135,28.9815711 146.859476,28.7638903 141.86783,28.8314464 C141.86783,24.7555611 141.86783,20.6796758 141.86783,16.6037905 Z M261.967581,16.6037905 C266.49384,16.6263092 271.0201,16.5737656 275.546359,16.618803 C277.565536,16.5962843 279.86995,17.579601 280.50798,19.6513217 C281.926658,23.7046883 281.32616,28.1033416 281.483791,32.3218454 C281.363691,35.6921446 281.716484,39.2500998 280.282793,42.4102244 C279.321995,44.4519202 276.837431,44.9923691 274.788229,44.9548379 C270.509676,44.9548379 266.238628,44.9398254 261.967581,44.9473317 C261.967581,35.4969825 261.967581,26.0541397 261.967581,16.6037905 Z" transform="translate(.523 .737)"/>
</svg>
